X:1
Q:1/4=70
L:1/8
M:1/4
K:C clef=G2
V:1
%%MIDI program 0
[G^A]z/2[^A^d]15/32|[^A^dg]15/8|[^A^dg]z/2[^A^dg]15/32|[^A^dg]z/2[df]15/32|
[c^d]15/16[^Ad]15/16|[^Ad]z/2c31/64|B31/64c31/64d31/64c31/64|[F^G]z/2^G15/32|
^A15/32c15/32d15/32^d15/32|[^Adf]15/8|[^Adf]z/2[^Adf]15/32|[^Adf]z/2[c^d]15/32|
[^Ad]15/16[^Gc]15/16|[^Gc]z/2^A31/64|A31/64^A31/64c31/64^A31/64|[^DG]z/2^A15/32|
c15/32d15/32^d15/32f15/32|[^A^dg]15/8|[^A^dg]z/2[^A^dg]15/32|[^A^cg]z/2^g31/128g31/128|
f31/32g15/16|[c^d^g]15/8|[c^d^g]z/2[c^d^g]15/32|[c^d^g]15/8|
[^gc']z/2[^gc']15/32|[^gc']z/2^a31/64|a31/64^a31/64c'31/64^a15/32|[f^gd']z/2c'31/64|
^a31/64^g31/64g31/64f15/32|[G-^A-^d][G-^A-]/2[f-G^A]/8|[^Ag]z/2[df]15/32|[G^A^d]z/2[g^a]31/64|
d'/8[^gc']z3/8[g^a]15/32|[d-f-^g-]2|[df^g]7/8z/8[^dg]15/16|[df]15/16[^dg]15/16|
[f^g]15/16[^fa]15/16|[g-^a-]2|[g^a]7/4z7/32|[^A^dg]z/2[g^a]31/64|
d'/8[^gc']z3/8[g^a]15/32|[d-f-^g-]2|[df^g]7/8z/8[^dg]15/16|[df]15/16[^dg]15/16|
[f^g]15/16[^fa]15/16|[g-^a-]2|[g^a]7/4z7/32|[^dg]15/8|
[g^a]z/2[^gc']15/32|[g^a^c']15/8|[g-^a-^c'][g-^a-]/2[^d'-g^a]/8|[g^af']15/8|
[c'^d']15/16[^a^c']15/16|[^d^gc']15/8|[^d^gc']z/2[^d^gc']15/32|[^d^gc']15/8|
[^gc']z/2[^gc']15/32|[^gc']z/2^a31/64|a31/64^a31/64c'31/64^a15/32|[f^gd']z/2c'31/64|
^a31/64^g31/64g31/64f15/32|[G-^A-^d][G-^A-]/2[f-G^A]/8|[^Ag]z/2[df]15/32|[G^A^d]15/8|
[G^A]z/2[^A^d]15/32
L:1/8
M:1/4
K:C clef=F4
V:2
%%MIDI program 0
z2|[^D,,^D,]15/8|[G,^A,^D]15/8|[^D,,^D,]15/8|
[F,,F,]15/16[G,,G,]15/16|[^G,,^G,]15/8|[^G,,^G,]15/8|[^G,,^G,]15/8|
[D,,D,]15/16[C,,C,]15/16|[^A,,,^A,,]15/8|[D,F,^A,]15/8|[^A,,,^A,,]15/8|
[C,,C,]15/16[D,,D,]15/16|[^D,,^D,]15/8|[^A,,,^A,,]15/8|[^D,,^D,]15/8|
^A,,15/32^G,,15/32G,,15/32F,,15/32|[^D,,^D,]15/8|[G,^A,^D]15/8|[^C,,^C,]15/8|
[G,^A,^C]15/8|[^G,,^G,]15/8|C,z/2^D,15/32|[^G,,^G,]15/8|
z2|[^A,,,^A,,]15/8|[F,^A,D]15/8|[^A,,,^A,,]15/8|
[D,F,^G,]15/8|[^D,,^D,]15/8|G,,z/2^A,,15/32|[^D,,^D,]15/8|
z2|[^A,,,-]/2[^A,,,-^A,,]31/64[^A,,,-D,]31/64[F,-^A,,,]3/8|^G,31/64F,31/64D,31/64^A,,15/32|[^A,,,-]/2[^A,,,-^A,,]31/64[^A,,,-D,]31/64[F,-^A,,,]3/8|
^G,31/64F,31/64D,31/64^A,,15/32|[^D,,-]/2[^D,,-^D,]31/64[^D,,-G,]31/64[^A,-^D,,]3/8|^D31/64^A,31/64G,31/64^D,15/32|^D,,15/8|
z2|[^A,,,-]/2[^A,,,-^A,,]31/64[^A,,,-D,]31/64[F,-^A,,,]3/8|^G,31/64F,31/64D,31/64^A,,15/32|[^A,,,-]/2[^A,,,-^A,,]31/64[^A,,,-D,]31/64[F,-^A,,,]3/8|
^G,31/64F,31/64D,31/64^A,,15/32|[^D,,-]/2[^D,,-^D,]31/64[^D,,-G,]31/64[^A,-^D,,]3/8|^D31/64^A,31/64G,31/64^D,15/32|^D,,15/8|
z2|^D,,15/64^D,15/64^D,,15/64^D,15/64^D,,15/64^D,15/64^D,,15/64^D,15/64|^D,,7/32^D,15/64^D,,15/64^D,15/64^D,,15/64^D,15/64^D,,15/64^D,15/64|^D,,7/32^D,15/64^D,,15/64^D,15/64^D,,15/64^D,15/64^D,,15/64^D,15/64|
G,,15/64G,15/64G,,15/64G,15/64G,,15/64G,15/64G,,15/64G,15/64|[^G,,^G,]31/16|^G,,/4^A,,/4C,3/8D,/4^D,3/8F,/4G,3/8|[^G,,^G,]31/16|
z2|[^A,,,^A,,]15/8|[F,^A,D]15/8|[^A,,,^A,,]15/8|
[D,F,^G,]15/8|[^D,,^D,]15/8|G,,z/2^A,,15/32|[^D,,^D,]15/8|
zz31/32
Q:1/4=70
L:1/8
M:1/4
K:C clef=G2
V:1
%%MIDI program 0
[^A^dg]15/8|[^A^dg]z/2[^A^dg]15/32|[^A^dg]z/2[df]15/32|[c^d]15/16[^Ad]15/16|
[^Ad]z/2c31/64|B31/64c31/64d31/64c31/64|[F^G]z/2^G15/32|^A15/32c15/32d15/32^d15/32|
[^Adf]15/8|[^Adf]z/2[^Adf]15/32|[^Adf]z/2[c^d]15/32|[^Ad]15/16[^Gc]15/16|
[^Gc]z/2^A31/64|A31/64^A31/64c31/64^A31/64|[^DG]z/2^A15/32|c15/32d15/32^d15/32f15/32|
[^A^dg]15/8|[^A^dg]z/2[^A^dg]15/32|[^A^cg]z/2^g31/128g31/128|f31/32g15/16|
[c^d^g]15/8|[c^d^g]z/2[c^d^g]15/32|[c^d^g]15/8|[^gc']z/2[^gc']15/32|
[^gc']z/2^a31/64|a31/64^a31/64c'31/64^a15/32|[f^gd']z/2c'31/64|^a31/64^g31/64g31/64f15/32|
[G-^A-^d][G-^A-]/2[f-G^A]/8|[^Ag]z/2[df]15/32|[G^A^d]z/2[g^a]31/64|d'/8[^gc']z3/8[g^a]15/32|
[df^g]31/16|[df^g]7/8z/8[^dg]15/16|[df]15/16[^dg]15/16|[f^g]15/16[^fa]15/16|
[g^a]31/16|[g^a]7/4(5:4z/4|[^A^dg]z/2[g^a]31/64|d'/8[^gc']z3/8[g^a]15/32|
[df^g]31/16|[df^g]7/8z/8[^dg]15/16|[df]15/16[^dg]15/16|[f^g]15/16[^fa]15/16|
[g^a]31/16|[g^a]7/4(5:4z/4|[^dg]15/8|[g^a]z/2[^gc']15/32|
[g^a^c']15/8|[g-^a-^c'][g-^a-]/2[^d'-g^a]/8|[g^af']15/8|[c'^d']15/16[^a^c']15/16|
[^d^gc']15/8|[^d^gc']z/2[^d^gc']15/32|[^d^gc']15/8|[^gc']z/2[^gc']15/32|
[^gc']z/2^a31/64|a31/64^a31/64c'31/64^a15/32|[f^gd']z/2c'31/64|^a31/64^g31/64g31/64f15/32|
[G-^A-^d][G-^A-]/2[f-G^A]/8|[^Ag]z/2[df]15/32|[G^A^d]15/8
L:1/8
M:1/4
K:C clef=F4
V:2
%%MIDI program 0
[^D,,^D,]15/8|[G,^A,^D]15/8|[^D,,^D,]15/8|[F,,F,]15/16[G,,G,]15/16|
[^G,,^G,]15/8|[^G,,^G,]15/8|[^G,,^G,]15/8|[D,,D,]15/16[C,,C,]15/16|
[^A,,,^A,,]15/8|[D,F,^A,]15/8|[^A,,,^A,,]15/8|[C,,C,]15/16[D,,D,]15/16|
[^D,,^D,]15/8|[^A,,,^A,,]15/8|[^D,,^D,]15/8|^A,,15/32^G,,15/32G,,15/32F,,15/32|
[^D,,^D,]15/8|[G,^A,^D]15/8|[^C,,^C,]15/8|[G,^A,^C]15/8|
[^G,,^G,]15/8|C,z/2^D,15/32|[^G,,^G,]15/8|z2|
[^A,,,^A,,]15/8|[F,^A,D]15/8|[^A,,,^A,,]15/8|[D,F,^G,]15/8|
[^D,,^D,]15/8|G,,z/2^A,,15/32|[^D,,^D,]15/8|z2|
[^A,,,-]/2[^A,,,-^A,,]31/64[^A,,,-D,]31/64[F,-^A,,,]3/8|^G,31/64F,31/64D,31/64^A,,15/32|[^A,,,-]/2[^A,,,-^A,,]31/64[^A,,,-D,]31/64[F,-^A,,,]3/8|^G,31/64F,31/64D,31/64^A,,15/32|
[^D,,-]/2[^D,,-^D,]31/64[^D,,-G,]31/64[^A,-^D,,]3/8|^D31/64^A,31/64G,31/64^D,15/32|^D,,15/8|z2|
[^A,,,-]/2[^A,,,-^A,,]31/64[^A,,,-D,]31/64[F,-^A,,,]3/8|^G,31/64F,31/64D,31/64^A,,15/32|[^A,,,-]/2[^A,,,-^A,,]31/64[^A,,,-D,]31/64[F,-^A,,,]3/8|^G,31/64F,31/64D,31/64^A,,15/32|
[^D,,-]/2[^D,,-^D,]31/64[^D,,-G,]31/64[^A,-^D,,]3/8|^D31/64^A,31/64G,31/64^D,15/32|^D,,15/8|z2|
^D,,15/64^D,15/64^D,,15/64^D,15/64^D,,15/64^D,15/64^D,,15/64^D,15/64|^D,,7/32^D,15/64^D,,15/64^D,15/64^D,,15/64^D,15/64^D,,15/64^D,15/64|^D,,7/32^D,15/64^D,,15/64^D,15/64^D,,15/64^D,15/64^D,,15/64^D,15/64|G,,15/64G,15/64G,,15/64G,15/64G,,15/64G,15/64G,,15/64G,15/64|
[^G,,^G,]31/16|^G,,/4^A,,/4C,3/8D,/4^D,3/8F,/4G,3/8||[^G,,-^G,-]128[^G,,^G,]31/16z2|
[^A,,,^A,,]15/8|[F,^A,D]15/8|[^A,,,^A,,]15/8|[D,F,^G,]15/8|
[^D,,^D,]15/8|G,,z/2^A,,15/32|[^D,,^D,]15/8


